!!!OTL: Die Brombeerpflueckerin Es wollt ein Maedchen in der Frueh aufstehn,
!!!ARE: Europa, Mitteleuropa, Deutschland (BRD), Hessen, Adorf
!!!YOR: 7, S. 104
!!    1932 aufgezeichnet (vor)
!!!SCT: Q0147L
!!!YEM: Copyright 1995, estate of Helmut Schaffrath.
**kern	**text
*ICvox	*
*M4/4	*
*met(c)	*
*k[f#]	*
*G:	*
!LO:TX:a:t=257	!
{4d	1._Es
=1	=1
4g	wollt
4d	ein
8.dL	Mäd-
16dJ	-chen
8gL	in
8gJ	der
=2	=2
4e	Früh
4e	auſ-
4e}	-stehn,
{4g	drei-
=3	=3
4f#	-vier-
4a	-tel
4.dd	Stund
8cc	vor
=4	=4
2b	Tag.
4r}	.
{4d	Wollt
=5	=5
4.g	in
8a	den
4b	Wald,
4g	spa-
=6	=6
4.a	-zie-
8b	-ren
4cc	gehn,
4r}	.
=7	=7
{(4.a	ju
8b)	.
4cc	ja
8r	.
8cc	spa-
=8	=8
4.b	-zie-
8dd	-ren
4dd	gehn,
4r}	.
=9	=9
{2g	ju
4.g	ja
8g	spa-
=10	=10
4.ee	-zie-
8ee	-ren
4ee}	gehn,
{8eeL	woll-
8eeJ	-te
=11	=11
4dd	Brom-
4dd	-beern
4cc	bre-
4f#	-chen
=12	=12
2g	ab.
4r}	.
==	==
!!!AGN: Ballade, Verfuehrung, Schwangerschaft
!! Vierte Zeile refrainartig.
!!!ONB: ESAC (Essen Associative Code) Database: BALLADE
!!!AMT: simple quadruple
!!!AIN: vox
!!!EED: Helmut Schaffrath
!!!EEV: 1.0
!!!source: Deutsche Volkslieder mit ihren Melodien Balladen. Herausgegeben vom Deutschen Volksliedarchiv. Siebenterer Band. Freiburg/Breisgau 1982.
!!!page: 104
!!!ENC: Anna Maria Matuszewska
!!!EEV: 2025/03/07
*-	*-
